X: 4225
T: The SIGN POST
R: Jig
%R: jig
B: James Kerr "Merry Melodies" v.4 p.25 #225
Z: 2016 John Chambers <jc:trillian.mit.edu>
M: 6/8
L: 1/8
K: A
|:\
Aee ef=g | B=GB dcB | Aee efg | aee fee |\
Aee ef=g | B=GB dcB | Aee dBe | cAA A3 :|
|:\
aec Ace | aga e2f | =gdB =GBd | =gfg e2^g |\
aec Ace | aga efd | cee dBe | cAA A3 :|

%%sep 1 1 500
%%sep 1 1 500

